-----BEGIN PGP MESSAGE-----

hF4DfXyTx8LolKgSAQdAcR6ikp3372MTTt214F824MKfm8XnZp14nb4M+mxDTh8w
S2laVWFL6gmWJwr+tnDxZs/4RdlvporVU4NkZktooD486pOc+KW/H4PzYoAF8Izr
0uoB26OIuSXioOB2M0bC+I22l/BaqHwdgHMOy5UznzNxscNh8PiMewGwTf90JAaA
fDEpTc9NmPV1r2qQVJqafL2SML1YXLWwTJxQ75mhgrpQD0jXQs+ynwsyO458rNwC
urOPu7Uo3AUE+1gC8sOMQJxYlDFkCNNt34v6tuyITknljMqKBYWloWNDzrNSchrS
1QGmIMPTfrb+HhvLgwJ23x1aKnygQPfwfvnW1/QFX3HjRBoWw+JN4JwzZQOjDV5p
qbtv5oogTPByioOOhodhKLIuHWqM1AxoVdDuU1mc0kT8O5U8RUXMJi92EZE5AfMi
+bwuvnIa0DtRXTHOeCmbV67sE78kFeHemqpHVg4NnUNaxA4uwjD3KqEwzpE3NoWV
ZkesAlsesKmAV2fHbEQ6WezpCbWanEfhgpGoDnE+MKo55nE17+eRPfO9pXLy2tIK
voAYlvHRXMM/xchI5WLtPTgS2cHPveJhPqAVP/eIMS/6c+QbiZsAHPe+UKcVIdON
EtsRZBR21iUrfK6xMQML4WwjUuB1Hn5SPjRW1zGbS/I8qvz9FKZuobUsUKlmVdFm
eKh88WzekIePxvVsI6ZnR5qbbG/mmOQCeBeTMIG8U30qY4aTU3NIkWDK6dcjtXRJ
V657GTBzNclsVLM3YwzwFYcOoAhCZCBHe4c+uuOuZTMZtxpejg6VPfUcKa2vuOoa
JnegM2JNKOMEPmJ1mSEsWcLx70ge0fO+WIW4MDgZ84w4gFUOYeypwe/69+J2187p
E6Yj/r1P4tNGD5d6p7SOpG1HSVrii0Lrp6jJ67aPJeMcvPTry1REvxZMs4XyFYqh
F6I61eFSbv05AIdFKLzHt0Qr+ec6281TswVwvYZsB6bNjj1p6kLqMzlfTPz/ziT3
zlynFydVkP3RFt6jVHoPqHJsbh3wS40nRCcN8N+7kUx8nEYWwdylWJNoiXc4afJy
b8Z094Wdflq2QSp7EenJYo3Klv5jq+G+iWnMnPjBO3hGjrqmCT/8JZ6V7Nsw2JIb
/xquQZFDxUroCUgWDwOi3H1vhh4FvugQbl1Hjog2QV8eFO+fGWvZC1fGj6QXB55r
oCcuXSdaA86J9U7+akSZVGZNLjMkEy9IL1PqAbgF2EkE3XfrH/Y+YKfR7HlLaykN
xmNwH3hTu3EUDRd+3tlinxHl8wHK2NBvA5eXhRRRqRIfqIFnEen35/Q34G+yIbaK
j7ftegOZzLDm6RoR98KZRKbR/9vuiT7er17VVmQfZis9JMGLB7qnDCYHY5PrcXQu
V4y3XpxMJ2CVzHihG9cmbnmgDy2NXg3ElgzVIQ5+0B6U/wFPD6is+fQ33lM0CzKK
is2cf8mkT6vz7bMb8DLmVhvS6nkXXFPof6nW/Q2q7SdqxqjZaRYExZdS6OMcfR4c
HOve08XOkyTg5OnfcukbRKTmurYg1ht45llSCYZBZF1w/tV1Eesm89r4mF4Y8/g4
NVCEh8UORgyCGDzlvcbNfN6dt1yGGUIjrD7equ/XMieDSZHOud673GxhOQSE8Ysc
nZT1tKgEHymoBsxUKFTa1JHUfXodzHRn0TqKrXawY22U6xTHyx9lA5ulEFsAyIJc
mREHxKpY9Ddtb17CnDmV8/wRdv+I0VP5AqeZyiuQ3gzedAXO6eKKR4q2wjX4ADOi
kN0uzxyiJT3KRsy9y9FvEtqNi1vZTHF7gnyQ5QwRdNErNyQV129ep+nhKxferVGH
FvRsUAZKlS6B+VZbD+0YmwzQJm5+1wPzoZIvxA3xvPz5V3jvgkzgvAz9llF+5u/Q
n5NxoT568Xz11Lwxo4K7O5bk4p4OZ7KPAs+bFn0l8YsAWNM6nszXcd2+/j6d1vPu
02XcRQJbIZcEdHbisU4eMw1K1Vb6fe/wgat72Dy5J8Cy8KDvJA7nK9vNpTjzp/Ag
p/wclC+52pzbkppH/abG3NQ50ufzO5rpDNlrUYqW6TpJW92fyaBpbh1y979Jxe4d
9HsV+Au8BH2NUgjO+4+3q6oSvSulwYQ+UcTwQ7nO9rMxmB8KmV3HS75boHisddlj
UyUQXrRZiNPVo+eHJpyHEvOJTTkDg7GzG+ZXYSXl1kkMAHYLO3+vfnKOooFxg+Ik
7RX85dr0otjcftHvrCgIWWy1BdoMtFDkIjwJZ9me49Bh2ldN/G77RRGw+hZEvy27
5VYBLeLTRlZTLXa9KlgEW3nA99efdyFAbH4UDx4tHkBCpL38th3KGzNKAYXzloGb
Gte5Dy4wJKUlFasami5BZkNDXGyZOskKE7OSNLmC5Kj5gAF70/H0Rg93mv4KTa/z
lzVLRWJXYFTbNv+mUD74gVY4Pq0pKhVyBzPKUo6IM2VR40MwQyNdAyLuQB7DWa3I
8bpZTiFWK4KiUjtw16ulauyqkohMzcmIx+DAonhSIx4Hk2n7NqxOZYPBviaoOB1r
E11OXwWy0lsXx5bvObz8TjPyc8jKjeTHk0NJKLk8MJ/bSIhNuh36Hva4GDkqx0IX
qpg8/PIb9Qn6JVgCn0snW3BP/hLgZEt3GkuYF3Y0xEFsAAEuimuZPOwixvX18bEE
ZjFidCJMB55jB3Wd7SuWtRR3J/1a4HiPNP+SMkOrwcZBA8UuEplyP9EIokLwfOaE
W9nBocOxX7MTlQYfv5lYjvEITs/q9LGvwF0bk1xYcm8juDTb5XJRU3bA6+4uCtze
CzGvcLgm6sALtr8+4At8ICq00JpVN+7Q+2ag3MYnHBpBTKTpzomcUYFU5pxpmUEG
haYzAbadGWJI8kcd14Fv9MejwLRmNDke9nc5KjYz+ufBbvugmpgQtdNe5/18dhDu
9NGLP4HOfofNeHQlOCLXiNjwkxmRj+F1dDFmhpK8XoD/qPB/NHekWGjiheLaridQ
YPO0Z5rNluwtXUiYpZ6FBKCW1Gly9ObK/pv50DPM4dfeBJxwHK8sjPxa0Fr9CzrW
OkiBOhFQlc50sUATbM2PVnIi6GIW0qXwUMiYg+wVwWfDcrWCaRwAR32/FBWJTLlt
Wmu0iUAHWo6up+3FiC0saafhxNQuAsnDA057vVnwwoRY9C1kwQiY8N2nqPzQS93v
R+ynTgAJT++AKB5I3IMQO6PJpvzbPiyvV6/FSaDHT9pDhZNO1a+Zx87B9Nrdb51V
ci8xATB9kBAoB90AvB9JlZwWIeBg+anvtMCSEqLdrZQXSd1XCQ9K/KQLQyfV8/uB
S3SE+tlTmP9DTRmmo33qtCp7zqTFtTGQFtrG4+8O01Gjym1h/X8icGtX30BHDq6K
McCViZaROAOjcCaqm1fUqUZ47AQizCQWCPg/c2bGfsoOJNqmlYkRgx2ukBaCpHik
q3BS/r8xBxC+KMdAm+KqP/TYIhS/f1EtEevRYOA0U9LH+S1bXLlUyFMMM1Py7xn7
Qle9AUCCbuPjpFabOi90rS11I7rA1MTFJBHYodjlZY69+Cqe881R4+wPaiV8GYyL
KJ+GJXict8MmFDgNwJmr2S/TQmIHWriCzCndjJyw0+XrONcui+ZDS51V8YCEu10E
eU+XtZmE6PkZFd+i9PjOOyAJQcstLvMB0vKZK7vsUKHLbPyJnicXuULfD5K/xhrH
sLBehJ+2N6ZgeUuO8TkHrIieg+zMxTIE1S7RUPMlnvGn0Sn2psFVj5v7JzV4zgNS
SsGoC6AuMbEUQzoGDOK8MAtkVdL9x+u8PySbIeDMnSFPhrttyCeLMX1nHab9W4Xv
lmSsg3UmoWED3YzD9uDs4QmOaHuqnupVSWC6Fvtc4SGzlGtlKVhslYu+9FCZNVVk
o3yA8q32x6Bt7eAYKQLTjWNv5bpHz0e+xucLMd7TO/tZENgt4+5OVVMsS2A5/pwC
oeL76yx4BkOewz1r+zX918l6H60KwWNwQuuYpkLT6evH8QRxeJWrGRI/5UL1+l9d
tfYfttci5UjSPovb/lQt+ZfieFBZ2uCl62s1Xyr2XwZTpik5bLD7UpXV
=eN5t
-----END PGP MESSAGE-----
